svg/fluentui-system-icons/ic_fluent_closed_caption_20_filled.svg

<svg width="20" height="20" viewBox="0 0 20 20" fill="none" xmlns="http://www.w3.org/2000/svg">
<path d="M5 4C3.34315 4 2 5.34315 2 7V13C2 14.6569 3.34315 16 5 16H15C16.6569 16 18 14.6569 18 13V7C18 5.34315 16.6569 4 15 4H5ZM6.40139 7.24033C7.22201 6.83 8.20386 6.99677 8.85356 7.64648C9.04882 7.84174 9.04881 8.15832 8.85355 8.35358C8.65829 8.54884 8.3417 8.54884 8.14644 8.35358C7.79614 8.00327 7.27799 7.92005 6.84861 8.13475C6.43659 8.34076 6 8.88522 6 10C6 11.1148 6.43659 11.6593 6.84861 11.8653C7.27799 12.08 7.79614 11.9968 8.14645 11.6465C8.34171 11.4512 8.65829 11.4512 8.85355 11.6465C9.04882 11.8417 9.04882 12.1583 8.85355 12.3536C8.20386 13.0033 7.22201 13.17 6.40139 12.7597C5.56341 12.3407 5 11.3852 5 10C5 8.61489 5.56341 7.65933 6.40139 7.24033ZM14.3536 7.64648C14.5488 7.84174 14.5488 8.15832 14.3535 8.35358C14.1583 8.54884 13.8417 8.54884 13.6464 8.35358C13.2961 8.00327 12.778 7.92005 12.3486 8.13475C11.9366 8.34076 11.5 8.88522 11.5 10C11.5 11.1148 11.9366 11.6593 12.3486 11.8653C12.778 12.08 13.2961 11.9968 13.6464 11.6465C13.8417 11.4512 14.1583 11.4512 14.3536 11.6465C14.5488 11.8417 14.5488 12.1583 14.3536 12.3536C13.7039 13.0033 12.722 13.17 11.9014 12.7597C11.0634 12.3407 10.5 11.3852 10.5 10C10.5 8.61489 11.0634 7.65933 11.9014 7.24033C12.722 6.83 13.7039 6.99677 14.3536 7.64648Z" fill="#212121"/>
</svg>

<svg xmlns="http://www.w3.org/2000/svg" width="20" height="20"><path d="M5 4a3 3 0 0 0-3 3v6a3 3 0 0 0 3 3h10a3 3 0 0 0 3-3V7a3 3 0 0 0-3-3H5Zm1.401 3.24a2.12 2.12 0 0 1 2.453.406.5.5 0 0 1-.708.708 1.12 1.12 0 0 0-1.297-.22C6.437 8.342 6 8.886 6 10c0 1.115.437 1.66.849 1.865.429.215.947.132 1.297-.219a.5.5 0 1 1 .708.708 2.12 2.12 0 0 1-2.453.406C5.563 12.34 5 11.385 5 10c0-1.385.563-2.34 1.401-2.76Zm7.953.406a.5.5 0 0 1-.708.708 1.12 1.12 0 0 0-1.297-.22c-.412.207-.849.751-.849 1.866 0 1.115.437 1.66.849 1.865.429.215.947.132 1.297-.219a.5.5 0 0 1 .708.708 2.12 2.12 0 0 1-2.453.406c-.838-.42-1.401-1.375-1.401-2.76 0-1.385.563-2.34 1.401-2.76a2.12 2.12 0 0 1 2.453.406Z"/></svg>
